www/assets/icons/phone_paused.svg

<svg xmlns="http://www.w3.org/2000/svg" width="24" height="24" viewBox="0 0 24 24" fill='currentColor'><path d="M17 3h-2v7h2zm3 12.5c-1.25 0-2.45-.2-3.57-.57a1.02 1.02 0 0 0-1.02.24l-2.2 2.2a15.05 15.05 0 0 1-6.59-6.59l2.2-2.21a.96.96 0 0 0 .25-1A11.4 11.4 0 0 1 8.5 4c0-.55-.45-1-1-1H4c-.55 0-1 .45-1 1 0 9.39 7.61 17 17 17 .55 0 1-.45 1-1v-3.5c0-.55-.45-1-1-1M19 3v7h2V3z"/></svg>

<svg width="24" height="24" viewBox="0 0 24 24" xmlns="http://www.w3.org/2000/svg" fill='currentColor'><path d="M17 3H15V10H17V3ZM20 15.5C18.75 15.5 17.55 15.3 16.43 14.93C16.08 14.82 15.69 14.9 15.41 15.17L13.21 17.37C10.38 15.93 8.06 13.62 6.62 10.78L8.82 8.57C9.1 8.31 9.18 7.92 9.07 7.57C8.7 6.45 8.5 5.25 8.5 4C8.5 3.45 8.05 3 7.5 3H4C3.45 3 3 3.45 3 4C3 13.39 10.61 21 20 21C20.55 21 21 20.55 21 20V16.5C21 15.95 20.55 15.5 20 15.5ZM19 3V10H21V3H19Z"/></svg>
